!!!!SEGMENT: pl-wumfc--r282--002-007_paderewski-ignacy-jan--exercises-2-exercise-7.krn
!!!cenid: 18xx:3182
!!!COM: Paderewski, Ignacy Jan
!!!COM-rismid: pe30029943
!!!CDT: 1860/11/18-1941/06/29
!!!CNT: Polish
!!!GTL: [Exercises 2]
!!!OTL: [Exercise] 7
!!!OMV: 007
!!!PDT:
!!!AGN:
!!!SMS-siglum: PL-Wumfc
!!!SMS-shelfmark: R282
!!!SMS-shelfwork: 002-007 G
!!!SMS-variant:
!!!SMS-altvar:
!!!NIFC-rismid: 1001158933
!!!URL-scan: http://repozytorium.nifc.pl/skany/pl-wumfc--r282
!!!ONB-nifc: UWAGA: druga grupa ćwiczeń od skanu 0008
!!!key: G
**kern	**kern
*part2	*part1
*group1	*group1
*staff2	*staff1
*I"[Pianoforte]	*I"[Pianoforte]
*I'	*I'
*Ipiano	*Ipiano
*ICklav	*ICklav
*clefF4	*clefG2
*k[f#]	*k[f#]
*G:	*G:
*M	*M
*	*^
!	!LO:TX:a:t=C f.	!
2G\	4b/	2g\
.	4cc/	.
=1	=1	=1
2B\	4dd/	2g\
.	4ee/	.
2A\	4ff#/	2f#\
.	4a/	.
2G\	4b/	2e\
.	4cc/	.
2F#\	4dd/	2d\
.	4a/	.
=2	=2	=2
2E\	4b/	2g\
.	4gg/	.
2F#\	4ff#/	2a\
.	4ee/	.
2G;\	2dd;/	2b;\
2d\	4dd/	2b\
.	4cc/	.
=3	=3	=3
2B\	4dd/	2b\
.	4ee/	.
2d\	4ff#/	2b\
.	4gg/	.
2c\	4aa/	2a\
.	4a/	.
2B\	4b/	2g\
.	4dd/	.
=4	=4	=4
2A\	4cc/	2cc\
.	4dd/	.
2G#X\	4ee/	2b\
.	4dd/	.
2A;\	2cc;/	2a;\
2e\	4gg/	2g\
.	4ff#/	.
=5	=5	=5
2c\	4ee/	2a\
.	4ff#/	.
2B\	4gg/	2b\
.	4dd/	.
2c\	4cc/	2a\
.	4dd/	.
2C\	4ee/	2g\
.	4ff#/	.
=6	=6	=6
2C\	4gg/	2e\
.	4ee/	.
2D\	4dd/	2f#\
.	4cc/	.
2E;\	2b;/	2g;\
2D\	4ff#/	2dd\
.	4dd/	.
=7	=7	=7
2G\	4ee/	2b\
.	4ff#/	.
2E\	4gg/	2g\
.	4ff#/	.
2c\	4ee/	2a\
.	4dd/	.
2A\	4ee/	2cc\
.	4ff#/	.
=8	=8	=8
2B\	4gg/	2b\
.	4dd/	.
2c\	4ee/	2a\
.	4ff#/	.
!	!LO:TX:t=P:problem:niepełna miara w takcie	!
2B;\	2gg;/	2g;\
2ryy	2ryy	2ryy
*	*v	*v
==	==
*-	*-
!!!system-decoration: [g1]
!!!ENC: Katarzyna Serwa
!!!END: 2021-11-16
!!!ENC: Anastazja Marusiak
!!!END: 2021-11-12
